;Generated by Cura LulzBot Edition GCodeWriter Version: 3.6.37
;FLAVOR:Marlin
;TIME:7861
;Filament used: 0.608104m
;Layer height: 0.1
;Generated with Cura_SteamEngine 3.6.37-macos
M82 ;absolute extrusion mode
;This G-Code has been generated specifically for the LulzBot TAZ 6 with standard extruder
;
;The following lines can be uncommented for printer specific fine tuning
;More information can be found at https://marlinfw.org/meta/gcode/
;
;M92 E833                 ;Set Axis Steps-per-unit
;M301 P21.0 I1.78 D61.93  ;Set Hotend PID
;M906 E135                ;Digipot Motor Current ((750mA-750)/5+135) = 135
;M206 Y4                  ;Set Home Offsets (default:4)
;
M73 P0 ; clear GLCD progress bar
M75 ; start GLCD timer
G26 ; clear potential 'probe fail' condition
M107 ; disable fans
M420 S0 ; disable previous leveling matrix
G90 ; absolute positioning
M82 ; set extruder to absolute mode
G92 E0 ; set extruder position to 0
M140 S60.0 ; start bed heating up
M109 R140 ; soften filament before homing Z
G28 ; Home all axis
G1 E-15 F100 ; retract filament
M109 R140                  ; wait for extruder to reach wiping temp
;M206 X0 Y0 Z0              ; uncomment to adjust wipe position (+X ~ nozzle moves left)(+Y ~ nozzle moves forward)(+Z ~ nozzle moves down)
G12                         ; wiping sequence
M206 X0 Y4 Z0               ; reseting stock nozzle position ### CAUTION: changing this line can affect print quality ###
M109 R140 ; wait for extruder to reach probe temp
G1 X-10 Y293 F4000 ; move above first probe point
M204 S100 ; set probing acceleration
G29 ; start auto-leveling sequence
M420 S1 ; activate bed level matrix
M425 Z			     ; use measured Z backlash for compensation
M425 Z F0		     ; turn off measured Z backlash compensation. (if activated in the quality settings, this command will automatically be ignored)
M204 S500 ; restore standard acceleration
G1 X0 Y0 Z15 F5000 ; move up off last probe point
G4 S1 ; pause
M400 ; wait for moves to finish
M117 Heating... ; progress indicator message on LCD
M109 R210 ; wait for extruder to reach printing temp
M190 R60.0 ; wait for bed to reach printing temp
G1 Z2 E0 F75 ; prime tiny bit of filament into the nozzle
M117 TAZ 6 Printing... ; progress indicator message on LCD

M221 S100 T0
G92 E0
G1 F600 E-1.75
;LAYER_COUNT:88
;LAYER:0
M107
G0 F5250 X111.879 Y128.303 Z0.425
;TYPE:SKIRT
G1 F600 E0
G1 F900 X112.459 Y127.898 E0.02356
G1 X113.128 Y127.539 E0.04885
G1 X113.486 Y127.374 E0.06199
G1 X114.144 Y127.115 E0.08554
G1 X114.826 Y126.932 E0.10906
G1 X115.696 Y126.813 E0.13831
G1 X116.694 Y126.748 E0.17163
G1 X117.11 Y126.735 E0.18549
G1 X163.957 Y126.813 E1.74598
G1 X164.663 Y126.854 E1.76954
G1 X165.359 Y126.975 E1.79307
G1 X166.038 Y127.173 E1.81663
G1 X166.529 Y127.371 E1.83427
G1 X166.831 Y127.508 E1.84531
G1 X167.457 Y127.836 E1.86885
G1 X168.042 Y128.233 E1.8924
G1 X168.579 Y128.693 E1.91596
G1 X169.06 Y129.211 E1.9395
G1 X169.48 Y129.779 E1.96303
G1 X169.833 Y130.392 E1.9866
G1 X170.114 Y131.04 E2.01012
G1 X170.32 Y131.716 E2.03366
G1 X170.449 Y132.411 E2.05721
G1 X170.499 Y133.195 E2.08338
G1 X170.506 Y141.783 E2.36945
G1 X170.467 Y142.489 E2.393
G1 X170.348 Y143.185 E2.41652
G1 X170.151 Y143.864 E2.44007
G1 X169.879 Y144.517 E2.46364
G1 X169.535 Y145.134 E2.48717
G1 X169.123 Y145.709 E2.51073
G1 X168.649 Y146.233 E2.53427
G1 X168.119 Y146.701 E2.55782
G1 X167.54 Y147.106 E2.58135
G1 X166.839 Y147.479 E2.6078
G1 X166.482 Y147.641 E2.62086
G1 X165.823 Y147.897 E2.64441
G1 X165.019 Y148.099 E2.67203
G1 X162.429 Y148.571 E2.75972
G1 X157.19 Y149.736 E2.9385
G1 X154.72 Y150.396 E3.02366
G1 X146.942 Y152.944 E3.2963
G1 X146.259 Y153.126 E3.31984
G1 X145.56 Y153.23 E3.34338
G1 X144.996 Y153.255 E3.36219
G1 X135.009 Y153.255 E3.69486
G1 X134.303 Y153.215 E3.71841
G1 X133.607 Y153.096 E3.74193
G1 X132.921 Y152.896 E3.76574
G1 X129.894 Y151.823 E3.87271
G1 X124.794 Y150.262 E4.05038
G1 X119.606 Y148.991 E4.2283
G1 X117.034 Y148.474 E4.31569
G1 X114.923 Y148.085 E4.38719
G1 X114.237 Y147.917 E4.41072
G1 X113.497 Y147.64 E4.43704
G1 X113.194 Y147.504 E4.4481
G1 X112.566 Y147.179 E4.47165
G1 X111.98 Y146.784 E4.49519
G1 X111.441 Y146.326 E4.51875
G1 X110.958 Y145.811 E4.54227
G1 X110.536 Y145.244 E4.56582
G1 X110.181 Y144.632 E4.58939
G1 X109.897 Y143.985 E4.61292
G1 X109.688 Y143.31 E4.63646
G1 X109.556 Y142.616 E4.65999
G1 X109.503 Y141.809 E4.68693
G1 X109.494 Y133.222 E4.97297
G1 X109.533 Y132.516 E4.99652
G1 X109.652 Y131.819 E5.02007
G1 X109.848 Y131.14 E5.04361
G1 X110.12 Y130.488 E5.06715
G1 X110.464 Y129.87 E5.09071
G1 X110.876 Y129.295 E5.11427
G1 X111.349 Y128.771 E5.13778
G1 X111.879 Y128.303 E5.16134
G0 F5250 X112.365 Y128.562
G1 F900 X112.936 Y128.197 E5.18391
G1 X113.337 Y127.993 E5.1989
G1 X113.695 Y127.828 E5.21203
G1 X114.327 Y127.581 E5.23463
G1 X114.983 Y127.41 E5.25721
G1 X115.728 Y127.312 E5.28224
G1 X116.726 Y127.247 E5.31556
G1 X117.11 Y127.235 E5.32835
G1 X163.957 Y127.313 E6.88885
G1 X164.633 Y127.354 E6.91141
G1 X165.3 Y127.475 E6.93399
G1 X165.949 Y127.673 E6.95659
G1 X166.322 Y127.827 E6.97003
G1 X166.624 Y127.964 E6.98108
G1 X167.224 Y128.28 E7.00367
G1 X167.783 Y128.664 E7.02626
G1 X168.292 Y129.111 E7.04882
G1 X168.745 Y129.616 E7.07142
G1 X169.136 Y130.17 E7.09401
G1 X169.458 Y130.766 E7.11657
G1 X169.709 Y131.396 E7.13916
G1 X169.883 Y132.051 E7.16174
G1 X169.979 Y132.722 E7.18431
G1 X169.999 Y133.195 E7.20008
G1 X170.006 Y141.783 E7.48615
G1 X169.967 Y142.46 E7.50874
G1 X169.848 Y143.128 E7.53134
G1 X169.651 Y143.776 E7.5539
G1 X169.38 Y144.398 E7.5765
G1 X169.037 Y144.982 E7.59907
G1 X168.628 Y145.523 E7.62166
G1 X168.158 Y146.012 E7.64425
G1 X167.634 Y146.441 E7.66681
G1 X167.062 Y146.807 E7.68943
G1 X166.632 Y147.024 E7.70547
G1 X166.275 Y147.186 E7.71853
G1 X165.642 Y147.429 E7.74112
G1 X164.929 Y147.607 E7.7656
G1 X162.339 Y148.079 E7.85329
G1 X157.068 Y149.251 E8.03316
G1 X154.577 Y149.916 E8.11904
G1 X146.786 Y152.469 E8.39214
G1 X146.131 Y152.642 E8.4147
G1 X145.459 Y152.736 E8.43731
G1 X144.996 Y152.755 E8.45274
G1 X135.009 Y152.755 E8.78541
G1 X134.332 Y152.715 E8.808
G1 X133.665 Y152.596 E8.83057
G1 X133.088 Y152.424 E8.85063
G1 X130.07 Y151.354 E8.95729
G1 X124.934 Y149.782 E9.13621
G1 X119.703 Y148.501 E9.3156
G1 X117.108 Y147.979 E9.40377
G1 X115.014 Y147.593 E9.4747
G1 X114.356 Y147.431 E9.49727
G1 X113.701 Y147.184 E9.52059
G1 X113.398 Y147.048 E9.53165
G1 X112.797 Y146.734 E9.55424
G1 X112.237 Y146.352 E9.57682
G1 X111.726 Y145.907 E9.59939
G1 X111.271 Y145.404 E9.62199
G1 X110.878 Y144.852 E9.64456
G1 X110.553 Y144.257 E9.66714
G1 X110.301 Y143.628 E9.68971
G1 X110.124 Y142.973 E9.71231
G1 X110.025 Y142.303 E9.73487
G1 X110.003 Y141.808 E9.75138
G1 X109.994 Y133.221 E10.03742
G1 X110.033 Y132.544 E10.06
G1 X110.152 Y131.877 E10.08257
G1 X110.348 Y131.228 E10.10516
G1 X110.62 Y130.607 E10.12774
G1 X110.962 Y130.022 E10.15031
G1 X111.371 Y129.481 E10.1729
G1 X111.841 Y128.992 E10.19549
G1 X112.365 Y128.562 E10.21807
G0 F5250 X112.331 Y129.225
G1 F900 X112.849 Y128.836 E10.23965
G1 X113.546 Y128.447 E10.26624
G1 X113.904 Y128.282 E10.27937
G1 X114.508 Y128.048 E10.30095
G1 X115.137 Y127.89 E10.32255
G1 X115.761 Y127.811 E10.3435
G1 X116.759 Y127.746 E10.37682
G1 X117.109 Y127.735 E10.38848
G1 X163.956 Y127.813 E11.94897
G1 X164.602 Y127.854 E11.97054
G1 X165.239 Y127.974 E11.99213
G1 X166.116 Y128.282 E12.02309
G1 X166.418 Y128.419 E12.03414
G1 X166.99 Y128.722 E12.0557
G1 X167.521 Y129.094 E12.07729
G1 X168.001 Y129.528 E12.09885
G1 X168.425 Y130.018 E12.12043
G1 X168.785 Y130.557 E12.14203
G1 X169.076 Y131.136 E12.16361
G1 X169.294 Y131.746 E12.18519
G1 X169.434 Y132.378 E12.20675
G1 X169.499 Y133.196 E12.23408
G1 X169.506 Y141.784 E12.52015
G1 X169.467 Y142.43 E12.54171
G1 X169.348 Y143.067 E12.5633
G1 X169.152 Y143.684 E12.58486
G1 X168.881 Y144.273 E12.60646
G1 X168.54 Y144.823 E12.62802
G1 X168.133 Y145.328 E12.64962
G1 X167.668 Y145.778 E12.67118
G1 X167.15 Y146.168 E12.69277
G1 X166.425 Y146.569 E12.72037
G1 X166.068 Y146.731 E12.73343
G1 X165.463 Y146.962 E12.755
G1 X164.84 Y147.115 E12.77637
G1 X162.239 Y147.589 E12.86444
G1 X156.951 Y148.764 E13.04488
G1 X154.439 Y149.436 E13.1315
G1 X146.631 Y151.994 E13.40519
G1 X146.004 Y152.157 E13.42677
G1 X145.362 Y152.242 E13.44834
G1 X144.996 Y152.255 E13.46054
G1 X135.009 Y152.255 E13.79321
G1 X134.362 Y152.215 E13.8148
G1 X133.726 Y152.096 E13.83635
G1 X133.255 Y151.953 E13.85275
G1 X130.219 Y150.877 E13.96004
G1 X125.062 Y149.299 E14.13969
G1 X119.827 Y148.016 E14.31923
G1 X117.163 Y147.48 E14.40975
G1 X115.105 Y147.101 E14.47945
G1 X114.476 Y146.945 E14.50104
G1 X113.906 Y146.728 E14.52135
G1 X113.603 Y146.592 E14.53242
G1 X113.03 Y146.29 E14.55399
G1 X112.498 Y145.921 E14.57556
G1 X112.015 Y145.489 E14.59715
G1 X111.59 Y145 E14.61873
G1 X111.227 Y144.463 E14.64032
G1 X110.934 Y143.886 E14.66187
G1 X110.714 Y143.276 E14.68347
G1 X110.571 Y142.645 E14.70503
G1 X110.503 Y141.808 E14.733
G1 X110.494 Y133.221 E15.01903
G1 X110.533 Y132.574 E15.04063
G1 X110.652 Y131.937 E15.06221
G1 X110.848 Y131.32 E15.08378
G1 X111.119 Y130.731 E15.10537
G1 X111.46 Y130.181 E15.12693
G1 X111.866 Y129.676 E15.14851
G1 X112.331 Y129.225 E15.17009
G1 F600 E13.42009
;MESH:
G0 F5250 X116.212 Y132.338
G0 X116.589 Y133.754
G0 X142.25 Y139.265
;TYPE:WALL-INNER
G1 F600 E15.17009
G1 F900 X142.25 Y144.265 E15.33664
G1 X137.75 Y144.265 E15.48654
G1 X137.75 Y139.265 E15.65309
G1 X118.485 Y139.261 E16.29482
G1 X118.484 Y135.985 E16.40394
G1 X118.484 Y135.735 E16.41227
G1 X118.734 Y135.735 E16.41766
G1 X161.515 Y135.737 E17.84271
G1 X161.516 Y139.015 E17.9519
G1 X161.516 Y139.265 E17.96023
G1 X161.266 Y139.265 E17.96561
G1 X142.25 Y139.265 E18.59904
G0 F5250 X142.75 Y139.765
G1 F900 X142.75 Y144.765 E18.76559
G1 X137.25 Y144.765 E18.9488
G1 X137.25 Y139.765 E19.11535
G1 X117.985 Y139.761 E19.75708
G1 X117.984 Y135.485 E19.89951
G1 X117.984 Y135.235 E19.90784
G1 X118.234 Y135.235 E19.91323
G1 X162.015 Y135.237 E21.37159
G1 X162.016 Y139.515 E21.51409
G1 X162.016 Y139.765 E21.52242
G1 X161.766 Y139.765 E21.52781
G1 X142.75 Y139.765 E22.16124
G0 F5250 X143.25 Y140.265
G1 F900 X143.25 Y145.265 E22.32779
G1 X136.75 Y145.265 E22.54431
G1 X136.75 Y140.265 E22.71086
G1 X117.485 Y140.261 E23.35258
G1 X117.484 Y134.985 E23.52833
G1 X117.484 Y134.735 E23.53665
G1 X117.734 Y134.735 E23.54204
G1 X162.515 Y134.737 E25.03371
G1 X162.516 Y140.015 E25.20953
G1 X162.516 Y140.265 E25.21785
G1 X162.266 Y140.265 E25.22324
G1 X143.25 Y140.265 E25.85667
G0 F5250 X143.75 Y140.765
G1 F900 X143.75 Y145.765 E26.02322
G1 X136.25 Y145.765 E26.27305
G1 X136.25 Y140.765 E26.4396
G1 X116.985 Y140.761 E27.08133
G1 X116.984 Y134.485 E27.29038
G1 X116.984 Y134.235 E27.29871
G1 X117.234 Y134.235 E27.3041
G1 X163.015 Y134.237 E28.82908
G1 X163.016 Y140.515 E29.0382
G1 X163.016 Y140.765 E29.04653
G1 X162.766 Y140.765 E29.05192
G1 X143.75 Y140.765 E29.68535
G0 F5250 X144.25 Y141.265
G1 F900 X144.25 Y146.265 E29.8519
G1 X135.75 Y146.265 E30.13504
G1 X135.75 Y141.265 E30.30159
G1 X116.485 Y141.261 E30.94331
G1 X116.484 Y133.937 E31.18728
G1 X116.484 Y133.74 E31.19384
G1 X116.589 Y133.735 E31.19734
G1 X116.786 Y133.735 E31.2039
G1 X163.515 Y133.737 E32.76046
G1 X163.516 Y141.063 E33.0045
G1 X163.516 Y141.26 E33.01106
G1 X163.411 Y141.265 E33.01456
G1 X163.214 Y141.265 E33.02112
G1 X144.25 Y141.265 E33.65282
G0 F5250 X144.75 Y141.765
;TYPE:WALL-OUTER
G1 F900 X144.75 Y146.765 E33.81937
G1 X135.25 Y146.765 E34.13582
G1 X135.25 Y141.765 E34.30237
G1 X116.554 Y141.765 E34.92514
G1 X116.33 Y141.753 E34.93261
G1 X116.159 Y141.718 E34.93843
G1 X115.985 Y141.652 E34.94463
G1 X115.984 Y133.349 E35.2212
G1 X116.158 Y133.283 E35.2274
G1 X116.328 Y133.248 E35.23318
G1 X116.584 Y133.235 E35.24172
G1 X163.5 Y133.235 E36.80451
G1 X163.664 Y133.246 E36.80999
G1 X163.842 Y133.282 E36.81604
G1 X164.015 Y133.347 E36.82219
G1 X164.016 Y141.652 E37.09883
G1 X163.843 Y141.717 E37.10499
G1 X163.673 Y141.752 E37.11077
G1 X163.416 Y141.765 E37.11934
G1 X144.75 Y141.765 E37.74111
G0 F5250 X144.75 Y142.015
G0 X144.15 Y142.015
G0 X141.76 Y143.775
;TYPE:SKIN
G1 F900 X138.24 Y143.775 E37.85837
G1 X138.24 Y138.775 E38.02492
G1 X118.975 Y138.771 E38.66664
G1 X118.974 Y136.225 E38.75145
G1 X161.025 Y136.227 E40.15218
G1 X161.026 Y138.775 E40.23706
G1 X141.76 Y138.775 E40.87882
G1 X141.76 Y143.775 E41.04537
G0 F5250 X144.222 Y141.237
G0 X160.799 Y136.757
G1 F900 X160.493 Y136.451 E41.05978
G0 F5250 X159.786 Y136.451
G1 F900 X160.799 Y137.465 E41.10753
G0 F5250 X160.8 Y138.172
G1 F900 X159.079 Y136.451 E41.1886
G0 F5250 X158.372 Y136.451
G1 F900 X160.47 Y138.55 E41.28746
G0 F5250 X159.763 Y138.55
G1 F900 X157.665 Y136.451 E41.38631
G0 F5250 X156.957 Y136.451
G1 F900 X159.056 Y138.55 E41.48519
G0 F5250 X158.349 Y138.55
G1 F900 X156.25 Y136.451 E41.58407
G0 F5250 X155.543 Y136.451
G1 F900 X157.642 Y138.55 E41.68295
G0 F5250 X156.935 Y138.55
G1 F900 X154.836 Y136.451 E41.78183
G0 F5250 X154.129 Y136.451
G1 F900 X156.228 Y138.55 E41.88071
G0 F5250 X155.521 Y138.55
G1 F900 X153.422 Y136.451 E41.97959
G0 F5250 X152.715 Y136.451
G1 F900 X154.813 Y138.55 E42.07845
G0 F5250 X154.106 Y138.55
G1 F900 X152.008 Y136.451 E42.1773
G0 F5250 X151.301 Y136.451
G1 F900 X153.399 Y138.55 E42.27616
G0 F5250 X152.692 Y138.55
G1 F900 X150.593 Y136.451 E42.37504
G0 F5250 X149.886 Y136.451
G1 F900 X151.985 Y138.55 E42.47392
G0 F5250 X151.278 Y138.55
G1 F900 X149.179 Y136.451 E42.5728
G0 F5250 X148.472 Y136.451
G1 F900 X150.571 Y138.55 E42.67168
G0 F5250 X149.864 Y138.55
G1 F900 X147.765 Y136.451 E42.77056
G0 F5250 X147.058 Y136.451
G1 F900 X149.157 Y138.55 E42.86944
G0 F5250 X148.449 Y138.55
G1 F900 X146.35 Y136.451 E42.96832
G0 F5250 X145.643 Y136.451
G1 F900 X147.742 Y138.55 E43.0672
G0 F5250 X147.035 Y138.55
G1 F900 X144.936 Y136.451 E43.16607
G0 F5250 X144.229 Y136.451
G1 F900 X146.328 Y138.55 E43.26495
G0 F5250 X145.621 Y138.55
G1 F900 X143.522 Y136.451 E43.36383
G0 F5250 X142.815 Y136.451
G1 F900 X144.914 Y138.55 E43.46271
G0 F5250 X144.207 Y138.55
G1 F900 X142.107 Y136.451 E43.56162
G0 F5250 X141.4 Y136.451
G1 F900 X143.5 Y138.55 E43.66052
G0 F5250 X142.793 Y138.55
G1 F900 X140.693 Y136.451 E43.75942
G0 F5250 X139.986 Y136.451
G1 F900 X142.086 Y138.55 E43.85833
G0 F5250 X141.535 Y138.706
G1 F900 X139.279 Y136.451 E43.96458
G0 F5250 X138.572 Y136.451
G1 F900 X141.535 Y139.413 E44.10414
G0 F5250 X141.535 Y140.12
G1 F900 X137.865 Y136.451 E44.277
G0 F5250 X137.158 Y136.451
G1 F900 X141.535 Y140.828 E44.48319
G0 F5250 X141.535 Y141.535
G1 F900 X136.451 Y136.451 E44.72269
G0 F5250 X135.743 Y136.451
G1 F900 X137.841 Y138.549 E44.82152
G0 F5250 X137.134 Y138.549
G1 F900 X135.036 Y136.451 E44.92035
G0 F5250 X134.329 Y136.451
G1 F900 X136.427 Y138.549 E45.01918
G0 F5250 X135.72 Y138.549
G1 F900 X133.622 Y136.451 E45.11802
G0 F5250 X132.914 Y136.45
G1 F900 X135.012 Y138.548 E45.21685
G0 F5250 X134.305 Y138.548
G1 F900 X132.207 Y136.45 E45.31568
G0 F5250 X131.5 Y136.45
G1 F900 X133.598 Y138.548 E45.41451
G0 F5250 X132.89 Y138.547
G1 F900 X130.793 Y136.45 E45.5133
G0 F5250 X130.086 Y136.45
G1 F900 X132.183 Y138.547 E45.61209
G0 F5250 X131.476 Y138.547
G1 F900 X129.379 Y136.45 E45.71087
G0 F5250 X128.672 Y136.45
G1 F900 X130.769 Y138.547 E45.80966
G0 F5250 X130.061 Y138.546
G1 F900 X127.965 Y136.45 E45.90839
G0 F5250 X127.258 Y136.45
G1 F900 X129.354 Y138.546 E46.00713
G0 F5250 X128.647 Y138.546
G1 F900 X126.55 Y136.45 E46.10589
G0 F5250 X125.843 Y136.45
G1 F900 X127.94 Y138.546 E46.20466
G0 F5250 X127.232 Y138.546
G1 F900 X125.136 Y136.45 E46.30339
G0 F5250 X124.429 Y136.45
G1 F900 X126.525 Y138.546 E46.40213
G0 F5250 X125.818 Y138.546
G1 F900 X123.722 Y136.45 E46.50087
G0 F5250 X123.015 Y136.45
G1 F900 X125.111 Y138.546 E46.59961
G0 F5250 X124.403 Y138.545
G1 F900 X122.308 Y136.45 E46.6983
G0 F5250 X121.601 Y136.45
G1 F900 X123.696 Y138.545 E46.79699
G0 F5250 X122.989 Y138.545
G1 F900 X120.894 Y136.45 E46.89568
G0 F5250 X120.186 Y136.45
G1 F900 X122.282 Y138.545 E46.9944
G0 F5250 X121.574 Y138.544
G1 F900 X119.479 Y136.45 E47.09307
G0 F5250 X119.199 Y136.876
