;Generated by Cura LulzBot Edition GCodeWriter Version: 3.6.37
;FLAVOR:Marlin
;TIME:613
;Filament used: 0.357436m
;Layer height: 0.38
;Generated with Cura_SteamEngine 3.6.37-macos
M82 ;absolute extrusion mode
;This G-Code has been generated specifically for the LulzBot TAZ 5 with standard extruder
M75			 ; start GLCD timer
M140 S60.0    ; start bed heating up
G90                      ; absolute positioning
M107                     ; disable fans
M82                      ; set extruder to absolute mode
G28 X0 Y0                ; home X and Y
G28 Z0                   ; home Z
G1 Z15.0 F175 ; move extruder up
M117 Heating...                     ; progress indicator message on LCD
M109 R210  ; wait for extruder to reach printing temp
M190 R60.0    ; wait for bed to reach printing temp
G92 E0                   ; set extruder position to 0
G1 F200 E0               ; prime the nozzle with filament
G92 E0                   ; re-set extruder position to 0
G1 F175       ; set travel speed
M203 X192 Y208 Z3        ; set limits on travel speed
M117 TAZ 5 Printing...   ; progress indicator message on LCD

M221 S100 T0
G92 E0
G1 F600 E-1
;LAYER_COUNT:24
;LAYER:0
M107
G0 F2625 X119.339 Y120.047 Z0.425
;TYPE:SKIRT
G1 F600 E0
G1 F900 X119.732 Y119.667 E0.01821
G1 X120.177 Y119.348 E0.03645
G1 X120.626 Y119.114 E0.05331
G1 X121.038 Y118.933 E0.0683
G1 X121.554 Y118.75 E0.08654
G1 X121.831 Y118.685 E0.09602
G1 X127.163 Y117.649 E0.27695
G1 X129.773 Y117.03 E0.3663
G1 X132.37 Y116.336 E0.45584
G1 X140.226 Y113.762 E0.73122
G1 X140.758 Y113.63 E0.74948
G1 X141.397 Y113.576 E0.77084
G1 X151.416 Y113.585 E1.10458
G1 X151.962 Y113.625 E1.12281
G1 X152.669 Y113.802 E1.14709
G1 X155.693 Y114.877 E1.254
G1 X160.936 Y116.481 E1.43663
G1 X166.241 Y117.781 E1.61857
G1 X168.963 Y118.329 E1.71106
G1 X169.023 Y118.341 E1.7131
G1 X171.445 Y118.87 E1.79568
G1 X171.97 Y119.026 E1.81392
G1 X172.467 Y119.256 E1.83217
G1 X172.924 Y119.556 E1.85037
G1 X173.334 Y119.92 E1.86864
G1 X173.685 Y120.339 E1.88684
G1 X173.973 Y120.805 E1.90509
G1 X174.189 Y121.308 E1.92333
G1 X174.33 Y121.837 E1.94156
G1 X174.395 Y122.534 E1.96488
G1 X174.396 Y131.115 E2.25072
G1 X174.356 Y131.66 E2.26892
G1 X174.237 Y132.195 E2.28718
G1 X174.042 Y132.706 E2.3054
G1 X173.774 Y133.183 E2.32362
G1 X173.44 Y133.617 E2.34186
G1 X173.046 Y133.997 E2.3601
G1 X172.601 Y134.315 E2.37832
G1 X172.216 Y134.521 E2.39286
G1 X171.858 Y134.686 E2.40599
G1 X171.345 Y134.878 E2.42424
G1 X170.81 Y134.993 E2.44247
G1 X170.29 Y135.03 E2.45983
G1 X122.6 Y135.055 E4.0484
G1 X122.054 Y135.015 E4.06664
G1 X121.52 Y134.897 E4.08486
G1 X121.257 Y134.807 E4.09412
G1 X120.8 Y134.632 E4.11042
G1 X120.304 Y134.399 E4.12867
G1 X119.848 Y134.097 E4.14689
G1 X119.441 Y133.732 E4.1651
G1 X119.091 Y133.311 E4.18334
G1 X118.806 Y132.844 E4.20156
G1 X118.592 Y132.34 E4.2198
G1 X118.453 Y131.81 E4.23805
G1 X118.391 Y131.133 E4.2607
G1 X118.384 Y122.55 E4.5466
G1 X118.424 Y122.004 E4.56484
G1 X118.542 Y121.47 E4.58305
G1 X118.737 Y120.958 E4.6013
G1 X119.005 Y120.481 E4.61953
G1 X119.339 Y120.047 E4.63777
G0 F2625 X119.832 Y120.252
G1 F900 X120.219 Y119.921 E4.65473
G1 X120.827 Y119.571 E4.6781
G1 X121.239 Y119.39 E4.69309
G1 X121.926 Y119.176 E4.71706
G1 X127.275 Y118.137 E4.89857
G1 X129.88 Y117.519 E4.98775
G1 X132.529 Y116.811 E5.07909
G1 X140.382 Y114.238 E5.35435
G1 X140.877 Y114.117 E5.37133
G1 X141.397 Y114.076 E5.3887
G1 X151.416 Y114.085 E5.72244
G1 X151.924 Y114.125 E5.73941
G1 X152.501 Y114.273 E5.75926
G1 X155.53 Y115.35 E5.86634
G1 X160.797 Y116.961 E6.04981
G1 X166.14 Y118.27 E6.23305
G1 X168.865 Y118.819 E6.32565
G1 X168.916 Y118.83 E6.32738
G1 X171.338 Y119.359 E6.40996
G1 X171.826 Y119.506 E6.42694
G1 X172.285 Y119.728 E6.44392
G1 X172.703 Y120.019 E6.46089
G1 X173.071 Y120.371 E6.47785
G1 X173.379 Y120.777 E6.49483
G1 X173.62 Y121.226 E6.5118
G1 X173.788 Y121.707 E6.52877
G1 X173.879 Y122.209 E6.54577
G1 X173.895 Y122.534 E6.55661
G1 X173.896 Y131.115 E6.84244
G1 X173.856 Y131.623 E6.85942
G1 X173.737 Y132.118 E6.87638
G1 X173.543 Y132.589 E6.89334
G1 X173.277 Y133.023 E6.9103
G1 X172.946 Y133.411 E6.92729
G1 X172.559 Y133.742 E6.94425
G1 X172.006 Y134.067 E6.96562
G1 X171.648 Y134.232 E6.97875
G1 X171.17 Y134.408 E6.99572
G1 X170.671 Y134.507 E7.01266
G1 X170.29 Y134.53 E7.02538
G1 X122.6 Y134.555 E8.61395
G1 X122.092 Y134.515 E8.63092
G1 X121.436 Y134.34 E8.65354
G1 X120.979 Y134.165 E8.66984
G1 X120.519 Y133.946 E8.68681
G1 X120.099 Y133.658 E8.70377
G1 X119.729 Y133.308 E8.72074
G1 X119.418 Y132.904 E8.73772
G1 X119.174 Y132.456 E8.75471
G1 X119.003 Y131.976 E8.77169
G1 X118.909 Y131.476 E8.78863
G1 X118.891 Y131.133 E8.80008
G1 X118.884 Y122.55 E9.08598
G1 X118.924 Y122.042 E9.10295
G1 X119.042 Y121.546 E9.11994
G1 X119.236 Y121.075 E9.1369
G1 X119.502 Y120.64 E9.15389
G1 X119.832 Y120.252 E9.17085
G1 F600 E8.17085
;MESH:
G0 F2625 X122.601 Y121.669
G0 X122.979 Y123.085
G0 X142.21 Y123.136
G0 X142.14 Y123.066
;TYPE:WALL-INNER
G1 F600 E9.17085
G1 F900 X142.14 Y118.066 E9.33741
G1 X150.64 Y118.066 E9.62054
G1 X150.64 Y123.066 E9.7871
G1 X169.905 Y123.07 E10.42882
G1 X169.906 Y130.393 E10.67275
G1 X169.906 Y130.59 E10.67931
G1 X169.801 Y130.595 E10.68282
G1 X169.604 Y130.595 E10.68938
G1 X122.875 Y130.593 E12.24594
G1 X122.874 Y123.268 E12.48994
G1 X122.874 Y123.071 E12.4965
G1 X122.979 Y123.066 E12.5
G1 X123.176 Y123.066 E12.50656
G1 X142.14 Y123.066 E13.13826
G0 F2625 X141.64 Y122.566
;TYPE:WALL-OUTER
G1 F900 X141.64 Y117.566 E13.30481
G1 X151.14 Y117.566 E13.62126
G1 X151.14 Y122.566 E13.78781
G1 X169.836 Y122.566 E14.41058
G1 X170.06 Y122.578 E14.41805
G1 X170.231 Y122.613 E14.42387
G1 X170.405 Y122.679 E14.43007
G1 X170.406 Y130.981 E14.70661
G1 X170.232 Y131.047 E14.71281
G1 X170.062 Y131.082 E14.71859
G1 X169.806 Y131.095 E14.72713
G1 X122.89 Y131.095 E16.28992
G1 X122.726 Y131.084 E16.29539
G1 X122.548 Y131.048 E16.30144
G1 X122.375 Y130.983 E16.3076
G1 X122.374 Y122.679 E16.58421
G1 X122.547 Y122.614 E16.59036
G1 X122.717 Y122.579 E16.59615
G1 X122.974 Y122.566 E16.60472
G1 X141.64 Y122.566 E17.22649
G0 F2625 X141.64 Y122.316
G0 X142.24 Y122.316
G0 X142.63 Y123.556
;TYPE:SKIN
G1 F900 X142.63 Y118.556 E17.39304
G1 X150.15 Y118.556 E17.64353
G1 X150.15 Y123.556 E17.81009
G1 X169.415 Y123.56 E18.45181
G1 X169.416 Y130.105 E18.66983
G1 X123.365 Y130.103 E20.2038
G1 X123.364 Y123.556 E20.42188
G1 X142.63 Y123.556 E21.06364
G0 F2625 X124.22 Y129.877
G1 F900 X123.589 Y129.246 E21.09337
G0 F2625 X123.589 Y128.539
G1 F900 X124.927 Y129.877 E21.1564
G0 F2625 X125.634 Y129.877
G1 F900 X123.589 Y127.832 E21.25273
G0 F2625 X123.589 Y127.125
G1 F900 X126.341 Y129.877 E21.38237
G0 F2625 X127.048 Y129.877
G1 F900 X123.589 Y126.417 E21.54534
G0 F2625 X123.589 Y125.71
G1 F900 X127.755 Y129.877 E21.74162
G0 F2625 X128.462 Y129.877
G1 F900 X123.589 Y125.003 E21.9712
G0 F2625 X123.589 Y124.296
G1 F900 X129.17 Y129.877 E22.23411
G0 F2625 X129.877 Y129.877
G1 F900 X123.781 Y123.781 E22.52128
G0 F2625 X124.488 Y123.781
G1 F900 X130.584 Y129.877 E22.80845
G0 F2625 X131.291 Y129.877
G1 F900 X125.195 Y123.781 E23.09562
G0 F2625 X125.902 Y123.781
G1 F900 X131.998 Y129.877 E23.38279
G0 F2625 X132.705 Y129.877
G1 F900 X126.609 Y123.781 E23.66996
G0 F2625 X127.316 Y123.781
G1 F900 X133.412 Y129.877 E23.95713
G0 F2625 X134.119 Y129.877
G1 F900 X128.023 Y123.781 E24.2443
G0 F2625 X128.73 Y123.781
G1 F900 X134.826 Y129.877 E24.53147
G0 F2625 X135.534 Y129.877
G1 F900 X129.438 Y123.781 E24.81864
G0 F2625 X130.145 Y123.781
G1 F900 X136.241 Y129.877 E25.10581
G0 F2625 X136.948 Y129.877
G1 F900 X130.852 Y123.781 E25.39298
G0 F2625 X131.559 Y123.781
G1 F900 X137.656 Y129.877 E25.68018
G0 F2625 X138.363 Y129.877
G1 F900 X132.266 Y123.781 E25.96737
G0 F2625 X132.973 Y123.781
G1 F900 X139.07 Y129.877 E26.25456
G0 F2625 X139.777 Y129.877
G1 F900 X133.68 Y123.781 E26.54176
G0 F2625 X134.387 Y123.781
G1 F900 X140.484 Y129.877 E26.82895
G0 F2625 X141.191 Y129.877
G1 F900 X135.094 Y123.781 E27.11614
G0 F2625 X135.801 Y123.781
G1 F900 X141.898 Y129.877 E27.40334
G0 F2625 X142.605 Y129.877
G1 F900 X136.509 Y123.781 E27.69051
G0 F2625 X137.216 Y123.781
G1 F900 X143.312 Y129.877 E27.97768
G0 F2625 X144.019 Y129.877
G1 F900 X137.923 Y123.781 E28.26485
G0 F2625 X138.63 Y123.781
G1 F900 X144.727 Y129.877 E28.55204
G0 F2625 X145.434 Y129.877
G1 F900 X139.337 Y123.781 E28.83924
G0 F2625 X140.044 Y123.781
G1 F900 X146.141 Y129.877 E29.12643
G0 F2625 X146.849 Y129.878
G1 F900 X140.751 Y123.781 E29.41367
G0 F2625 X141.458 Y123.781
G1 F900 X147.556 Y129.878 E29.70091
G0 F2625 X148.263 Y129.878
G1 F900 X142.165 Y123.781 E29.98815
G0 F2625 X142.853 Y123.762
G1 F900 X148.97 Y129.878 E30.27629
G0 F2625 X149.677 Y129.878
G1 F900 X142.853 Y123.054 E30.59775
G0 F2625 X142.853 Y122.347
G1 F900 X150.384 Y129.878 E30.95252
G0 F2625 X151.091 Y129.878
G1 F900 X142.853 Y121.64 E31.3406
G0 F2625 X142.853 Y120.933
G1 F900 X151.798 Y129.878 E31.76198
G0 F2625 X152.505 Y129.878
G1 F900 X142.853 Y120.226 E32.21666
G0 F2625 X142.853 Y119.519
G1 F900 X153.213 Y129.878 E32.70468
G0 F2625 X153.92 Y129.878
G1 F900 X142.853 Y118.812 E33.226
G0 F2625 X143.529 Y118.781
G1 F900 X154.627 Y129.878 E33.74878
G0 F2625 X155.334 Y129.878
G1 F900 X144.237 Y118.781 E34.27154
G0 F2625 X144.944 Y118.781
G1 F900 X149.924 Y123.761 E34.50614
G0 F2625 X149.944 Y123.781
G1 F900 X156.041 Y129.878 E34.79335
G0 F2625 X156.748 Y129.878
G1 F900 X150.651 Y123.781 E35.08057
G0 F2625 X151.359 Y123.781
G1 F900 X157.455 Y129.878 E35.36776
G0 F2625 X158.163 Y129.879
G1 F900 X152.066 Y123.781 E35.655
G0 F2625 X152.773 Y123.781
G1 F900 X158.87 Y129.879 E35.94224
G0 F2625 X159.577 Y129.879
G1 F900 X153.48 Y123.781 E36.22949
G0 F2625 X154.188 Y123.782
G1 F900 X160.284 Y129.879 E36.51668
G0 F2625 X160.991 Y129.879
G1 F900 X154.895 Y123.782 E36.80387
G0 F2625 X155.602 Y123.782
G1 F900 X161.699 Y129.879 E37.09109
G0 F2625 X162.406 Y129.879
G1 F900 X156.309 Y123.782 E37.37831
G0 F2625 X157.016 Y123.782
G1 F900 X163.113 Y129.879 E37.66552
G0 F2625 X163.82 Y129.879
G1 F900 X157.724 Y123.783 E37.9527
G0 F2625 X158.431 Y123.783
G1 F900 X164.527 Y129.879 E38.23987
G0 F2625 X165.234 Y129.879
G1 F900 X159.138 Y123.783 E38.52704
G0 F2625 X159.845 Y123.783
G1 F900 X165.941 Y129.879 E38.81421
G0 F2625 X166.648 Y129.879
G1 F900 X160.552 Y123.783 E39.10138
G0 F2625 X161.259 Y123.783
G1 F900 X167.355 Y129.879 E39.38855
G0 F2625 X168.063 Y129.879
G1 F900 X161.967 Y123.783 E39.67572
G0 F2625 X162.674 Y123.783
G1 F900 X168.77 Y129.879 E39.96289
G0 F2625 X169.19 Y129.592
G1 F900 X163.381 Y123.783 E40.23654
G0 F2625 X164.089 Y123.783
G1 F900 X169.19 Y128.885 E40.47686
G0 F2625 X169.19 Y128.178
G1 F900 X164.796 Y123.783 E40.68387
G0 F2625 X165.503 Y123.784
G1 F900 X169.19 Y127.471 E40.85756
G0 F2625 X169.19 Y126.763
G1 F900 X166.211 Y123.784 E40.9979
G0 F2625 X166.918 Y123.784
G1 F900 X169.19 Y126.056 E41.10492
G0 F2625 X169.19 Y125.349
G1 F900 X167.625 Y123.784 E41.17865
G0 F2625 X168.332 Y123.784
G1 F900 X169.19 Y124.642 E41.21907
G0 F2625 X169.19 Y123.935
G1 F900 X169.039 Y123.784 E41.22618
G0 F2625 X149.924 Y123.054
G1 F900 X145.651 Y118.781 E41.42747
G0 F2625 X146.358 Y118.781
M104 S205
G1 F900 X149.924 Y122.347 E41.59546
G0 F2625 X149.924 Y121.64
G1 F900 X147.065 Y118.781 E41.73014
G0 F2625 X147.772 Y118.781
G1 F900 X149.924 Y120.932 E41.83149
G0 F2625 X149.924 Y120.225
G1 F900 X148.479 Y118.781 E41.89954
G0 F2625 X149.186 Y118.781
G1 F900 X149.924 Y119.518 E41.93428
G1 X150.012 Y119.606
;MESH:NONMESH
G0 F2625 X142.21 Y123.136
G0 X142.14 Y123.066
;TIME_ELAPSED:103.374573
;LAYER:1
M140 S60
M221 S100 T0
M106 S102
;MESH:
G0 F6562.5 X142.14 Y123.066 Z0.805
;TYPE:WALL-INNER
G1 F1500 X142.14 Y118.066 E42.0832
G1 X150.64 Y118.066 E42.33636
G1 X150.64 Y123.066 E42.48528
G1 X169.744 Y123.066 E43.05426
G1 X170.001 Y123.076 E43.06192
G1 X170.088 Y123.093 E43.06456
G1 X170.186 Y123.129 E43.06767
G1 X170.284 Y123.179 E43.07094
G1 X170.346 Y123.224 E43.07323
G1 X170.347 Y130.436 E43.28802
G1 X170.285 Y130.481 E43.29031
G1 X170.187 Y130.531 E43.29358
G1 X170.089 Y130.567 E43.29669
G1 X169.993 Y130.586 E43.29961
G1 X169.8 Y130.595 E43.30536
G1 X123.038 Y130.595 E44.69809
G1 X122.777 Y130.585 E44.70587
G1 X122.689 Y130.567 E44.70855
G1 X122.592 Y130.532 E44.71162
G1 X122.491 Y130.478 E44.71503
G1 X122.434 Y130.437 E44.71712
G1 X122.433 Y123.225 E44.93192
G1 X122.492 Y123.181 E44.93411
G1 X122.594 Y123.128 E44.93753
G1 X122.685 Y123.096 E44.94041
G1 X122.785 Y123.075 E44.94345
G1 X122.98 Y123.066 E44.94926
G1 X142.14 Y123.066 E45.51991
G0 F6562.5 X141.64 Y122.566
;TYPE:WALL-OUTER
G1 F1350 X141.64 Y117.566 E45.66883
G1 X151.14 Y117.566 E45.95177
G1 X151.14 Y122.566 E46.10069
G1 X169.763 Y122.566 E46.65534
G1 X170.059 Y122.577 E46.66417
G1 X170.225 Y122.611 E46.66921
G1 X170.384 Y122.668 E46.67424
G1 X170.546 Y122.752 E46.67968
G1 X170.694 Y122.859 E46.68512
G1 X170.846 Y123.014 E46.69158
G1 X170.847 Y130.646 E46.91889
G1 X170.695 Y130.801 E46.92536
G1 X170.547 Y130.908 E46.9308
G1 X170.385 Y130.992 E46.93623
G1 X170.226 Y131.049 E46.94126
G1 X170.059 Y131.083 E46.94634
G1 X169.802 Y131.095 E46.954
G1 X123.018 Y131.095 E48.34739
G1 X122.718 Y131.083 E48.35633
G1 X122.552 Y131.049 E48.36137
G1 X122.39 Y130.991 E48.3665
G1 X122.231 Y130.906 E48.37187
G1 X122.083 Y130.8 E48.37729
G1 X121.934 Y130.648 E48.38363
G1 X121.933 Y123.015 E48.61097
G1 X122.091 Y122.856 E48.61764
G1 X122.227 Y122.756 E48.62267
G1 X122.391 Y122.67 E48.62819
G1 X122.549 Y122.614 E48.63318
G1 X122.72 Y122.578 E48.63838
G1 X122.978 Y122.566 E48.64608
G1 X141.64 Y122.566 E49.20189
G0 F6562.5 X141.64 Y122.316
G0 X142.24 Y122.316
G0 X142.63 Y123.556
;TYPE:SKIN
G1 F1350 X142.63 Y118.556 E49.35081
G1 X150.15 Y118.556 E49.57478
G1 X150.15 Y123.556 E49.7237
G1 X169.856 Y123.561 E50.31061
G1 X169.857 Y130.101 E50.50539
G1 X122.924 Y130.1 E51.90322
G1 X122.923 Y123.56 E52.098
G1 X142.63 Y123.556 E52.68494
G0 F6562.5 X123.148 Y124.339
G1 F1350 X123.704 Y123.783 E52.70836
G0 F6562.5 X124.411 Y123.783
G1 F1350 X123.148 Y125.046 E52.76156
G0 F6562.5 X123.148 Y125.753
G1 F1350 X125.118 Y123.783 E52.84453
G0 F6562.5 X125.825 Y123.783
G1 F1350 X123.148 Y126.46 E52.95729
G0 F6562.5 X123.148 Y127.167
G1 F1350 X126.532 Y123.783 E53.09982
G0 F6562.5 X127.239 Y123.783
G1 F1350 X123.148 Y127.874 E53.27214
G0 F6562.5 X123.148 Y128.581
G1 F1350 X127.946 Y123.783 E53.47423
G0 F6562.5 X128.654 Y123.782
G1 F1350 X123.148 Y129.288 E53.70614
G0 F6562.5 X123.269 Y129.875
G1 F1350 X129.361 Y123.782 E53.96276
G0 F6562.5 X130.068 Y123.782
G1 F1350 X123.976 Y129.875 E54.21937
G0 F6562.5 X124.683 Y129.875
G1 F1350 X130.775 Y123.782 E54.47599
G0 F6562.5 X131.482 Y123.782
G1 F1350 X125.39 Y129.875 E54.73261
G0 F6562.5 X126.097 Y129.875
G1 F1350 X132.19 Y123.782 E54.98924
G0 F6562.5 X132.897 Y123.782
G1 F1350 X126.804 Y129.875 E55.24588
G0 F6562.5 X127.511 Y129.875
G1 F1350 X133.604 Y123.781 E55.50254
G0 F6562.5 X134.312 Y123.781
G1 F1350 X128.218 Y129.875 E55.75922
G0 F6562.5 X128.926 Y129.875
G1 F1350 X135.019 Y123.781 E56.01588
G0 F6562.5 X135.726 Y123.781
G1 F1350 X129.633 Y129.875 E56.27254
G0 F6562.5 X130.34 Y129.875
G1 F1350 X136.433 Y123.781 E56.5292
G0 F6562.5 X137.14 Y123.781
G1 F1350 X131.047 Y129.875 E56.78585
G0 F6562.5 X131.754 Y129.875
G1 F1350 X137.847 Y123.781 E57.04251
G0 F6562.5 X138.555 Y123.781
G1 F1350 X132.461 Y129.875 E57.29919
G0 F6562.5 X133.168 Y129.875
G1 F1350 X139.262 Y123.781 E57.55587
G0 F6562.5 X139.969 Y123.781
G1 F1350 X133.875 Y129.875 E57.81255
G0 F6562.5 X134.582 Y129.875
G1 F1350 X140.676 Y123.781 E58.06923
G0 F6562.5 X141.383 Y123.781
G1 F1350 X135.29 Y129.875 E58.32589
G0 F6562.5 X135.997 Y129.875
G1 F1350 X142.09 Y123.781 E58.58255
G0 F6562.5 X142.798 Y123.781
G1 F1350 X136.704 Y129.875 E58.83923
G0 F6562.5 X137.411 Y129.875
G1 F1350 X148.505 Y118.78 E59.30653
G0 F6562.5 X149.212 Y118.78
G1 F1350 X138.118 Y129.875 E59.77383
G0 F6562.5 X138.824 Y129.875
G1 F1350 X149.92 Y118.78 E60.24117
G0 F6562.5 X149.924 Y119.483
G1 F1350 X139.531 Y129.875 E60.67891
G0 F6562.5 X140.239 Y129.875
G1 F1350 X149.924 Y120.19 E61.08684
G0 F6562.5 X149.924 Y120.897
