;Generated by Cura LulzBot Edition GCodeWriter Version: 3.6.37
;FLAVOR:Marlin
;TIME:1392
;Filament used: 0.629336m
;Layer height: 0.2
;Generated with Cura_SteamEngine 3.6.37-macos
M82 ;absolute extrusion mode
;This G-Code has been generated specifically for the LulzBot TAZ 6 with standard extruder
;
;The following lines can be uncommented for printer specific fine tuning
;More information can be found at https://marlinfw.org/meta/gcode/
;
;M92 E833                 ;Set Axis Steps-per-unit
;M301 P21.0 I1.78 D61.93  ;Set Hotend PID
;M906 E135                ;Digipot Motor Current ((750mA-750)/5+135) = 135
;M206 Y4                  ;Set Home Offsets (default:4)
;
M73 P0 ; clear GLCD progress bar
M75 ; start GLCD timer
G26 ; clear potential 'probe fail' condition
M107 ; disable fans
M420 S0 ; disable previous leveling matrix
G90 ; absolute positioning
M82 ; set extruder to absolute mode
G92 E0 ; set extruder position to 0
M140 S60.0 ; start bed heating up
M109 R160 ; soften filament before homing Z
G28 ; Home all axis
G1 E-15 F100 ; retract filament
M109 R160                  ; wait for extruder to reach wiping temp
;M206 X0 Y0 Z0              ; uncomment to adjust wipe position (+X ~ nozzle moves left)(+Y ~ nozzle moves forward)(+Z ~ nozzle moves down)
G12                         ; wiping sequence
M206 X0 Y4 Z0               ; reseting stock nozzle position ### CAUTION: changing this line can affect print quality ###
M109 R160 ; wait for extruder to reach probe temp
G1 X-10 Y293 F4000 ; move above first probe point
M204 S100 ; set probing acceleration
G29 ; start auto-leveling sequence
M420 S1 ; activate bed level matrix
M425 Z			     ; use measured Z backlash for compensation
M425 Z F0		     ; turn off measured Z backlash compensation. (if activated in the quality settings, this command will automatically be ignored)
M204 S500 ; restore standard acceleration
G1 X0 Y0 Z15 F5000 ; move up off last probe point
G4 S1 ; pause
M400 ; wait for moves to finish
M117 Heating... ; progress indicator message on LCD
M109 R230 ; wait for extruder to reach printing temp
M190 R60.0 ; wait for bed to reach printing temp
G1 Z2 E0 F75 ; prime tiny bit of filament into the nozzle
M117 TAZ 6 Printing... ; progress indicator message on LCD

M221 S100 T0
G92 E0
G1 F600 E-1
;LAYER_COUNT:45
;LAYER:0
M107
G0 F2625 X119.097 Y174.125 Z0.425
;TYPE:SKIRT
G1 F600 E0
G1 F900 X119.504 Y173.909 E0.01535
G1 X119.861 Y173.747 E0.02841
G1 X120.375 Y173.558 E0.04665
G1 X120.693 Y173.481 E0.05755
G1 X126.095 Y172.427 E0.24088
G1 X128.693 Y171.811 E0.32982
G1 X131.29 Y171.117 E0.41937
G1 X139.146 Y168.543 E0.69474
G1 X139.678 Y168.411 E0.713
G1 X140.317 Y168.357 E0.73436
G1 X150.336 Y168.366 E1.0681
G1 X150.882 Y168.406 E1.08633
G1 X151.589 Y168.583 E1.11061
G1 X154.613 Y169.658 E1.21752
G1 X159.856 Y171.262 E1.40015
G1 X165.161 Y172.562 E1.58209
G1 X167.849 Y173.103 E1.67343
G1 X169.931 Y173.486 E1.74394
G1 X170.461 Y173.624 E1.76219
G1 X170.784 Y173.751 E1.77375
G1 X171.088 Y173.887 E1.78484
G1 X171.57 Y174.146 E1.80307
G1 X172.009 Y174.473 E1.8213
G1 X172.396 Y174.86 E1.83953
G1 X172.723 Y175.3 E1.85779
G1 X172.982 Y175.782 E1.87602
G1 X173.168 Y176.297 E1.89426
G1 X173.277 Y176.833 E1.91248
G1 X173.307 Y177.306 E1.92827
G1 X173.316 Y185.893 E2.2143
G1 X173.277 Y186.439 E2.23254
G1 X173.158 Y186.973 E2.25076
G1 X172.963 Y187.485 E2.26901
G1 X172.696 Y187.962 E2.28722
G1 X172.362 Y188.396 E2.30546
G1 X171.968 Y188.776 E2.32369
G1 X171.524 Y189.096 E2.34193
G1 X170.862 Y189.416 E2.36642
G1 X170.3 Y189.623 E2.38637
G1 X169.774 Y189.774 E2.4046
G1 X169.004 Y189.854 E2.43038
G1 X121.624 Y189.853 E4.00863
G1 X121.078 Y189.813 E4.02687
G1 X120.402 Y189.648 E4.05004
G1 X119.839 Y189.454 E4.06988
G1 X119.336 Y189.239 E4.0881
G1 X118.87 Y188.952 E4.10633
G1 X118.45 Y188.601 E4.12456
G1 X118.086 Y188.192 E4.1428
G1 X117.785 Y187.735 E4.16103
G1 X117.555 Y187.238 E4.17927
G1 X117.398 Y186.714 E4.19749
G1 X117.311 Y185.912 E4.22437
G1 X117.304 Y177.327 E4.51034
G1 X117.344 Y176.781 E4.52857
G1 X117.462 Y176.247 E4.54679
G1 X117.657 Y175.735 E4.56504
G1 X117.925 Y175.258 E4.58326
G1 X118.259 Y174.824 E4.60151
G1 X118.652 Y174.444 E4.61972
G1 X119.097 Y174.125 E4.63795
G0 F2625 X119.139 Y174.698
G1 F900 X119.711 Y174.364 E4.66002
G1 X120.068 Y174.202 E4.67308
G1 X120.789 Y173.972 E4.69829
G1 X126.203 Y172.916 E4.88203
G1 X128.8 Y172.3 E4.97093
G1 X131.449 Y171.592 E5.06227
G1 X139.302 Y169.019 E5.33754
G1 X139.797 Y168.898 E5.35451
G1 X140.317 Y168.857 E5.37189
G1 X150.336 Y168.866 E5.70563
G1 X150.844 Y168.906 E5.7226
G1 X151.421 Y169.054 E5.74244
G1 X154.45 Y170.131 E5.84953
G1 X159.717 Y171.742 E6.033
G1 X165.06 Y173.051 E6.21624
G1 X167.781 Y173.599 E6.30869
G1 X169.841 Y173.978 E6.37846
G1 X170.333 Y174.109 E6.39542
G1 X170.58 Y174.207 E6.40428
G1 X170.884 Y174.343 E6.41537
G1 X171.332 Y174.587 E6.43236
G1 X171.735 Y174.898 E6.44932
G1 X172.085 Y175.268 E6.46628
G1 X172.374 Y175.688 E6.48327
G1 X172.592 Y176.148 E6.50022
G1 X172.737 Y176.637 E6.51721
G1 X172.807 Y177.307 E6.53965
G1 X172.816 Y185.894 E6.82569
G1 X172.777 Y186.402 E6.84266
G1 X172.658 Y186.897 E6.85962
G1 X172.464 Y187.368 E6.87659
G1 X172.198 Y187.803 E6.89357
G1 X171.868 Y188.191 E6.91054
G1 X171.481 Y188.523 E6.92752
G1 X171.047 Y188.79 E6.9445
G1 X170.689 Y188.947 E6.95752
G1 X170.127 Y189.154 E6.97747
G1 X169.637 Y189.292 E6.99442
G1 X169.004 Y189.354 E7.01561
G1 X121.624 Y189.353 E8.59386
G1 X121.116 Y189.313 E8.61083
G1 X120.565 Y189.176 E8.62974
G1 X120.002 Y188.982 E8.64958
G1 X119.535 Y188.778 E8.66655
G1 X119.105 Y188.505 E8.68352
G1 X118.724 Y188.167 E8.70049
G1 X118.399 Y187.774 E8.71747
G1 X118.141 Y187.335 E8.73443
G1 X117.954 Y186.861 E8.75141
G1 X117.843 Y186.364 E8.76837
G1 X117.811 Y185.912 E8.78347
G1 X117.804 Y177.327 E9.06943
G1 X117.844 Y176.819 E9.08641
G1 X117.962 Y176.323 E9.10339
G1 X118.156 Y175.852 E9.12036
G1 X118.422 Y175.417 E9.13734
G1 X118.752 Y175.029 E9.15431
G1 X119.139 Y174.698 E9.17127
G1 F600 E8.17127
;MESH:
G0 F2625 X121.534 Y176.45
G0 X121.899 Y177.866
G0 X141.13 Y177.917
G0 X141.06 Y177.847
;TYPE:WALL-INNER
G1 F600 E9.17127
G1 F900 X141.06 Y172.847 E9.33783
G1 X149.56 Y172.847 E9.62096
G1 X149.56 Y177.847 E9.78752
G1 X168.825 Y177.851 E10.42924
G1 X168.826 Y185.175 E10.67321
G1 X168.826 Y185.372 E10.67977
G1 X168.72 Y185.377 E10.6833
G1 X168.523 Y185.377 E10.68986
G1 X121.795 Y185.375 E12.24639
G1 X121.794 Y178.049 E12.49042
G1 X121.794 Y177.852 E12.49698
G1 X121.899 Y177.847 E12.50049
G1 X122.096 Y177.847 E12.50705
G1 X141.06 Y177.847 E13.13875
G0 F2625 X140.56 Y177.347
;TYPE:WALL-OUTER
G1 F900 X140.56 Y172.347 E13.3053
G1 X150.06 Y172.347 E13.62175
G1 X150.06 Y177.347 E13.7883
G1 X168.756 Y177.347 E14.41107
G1 X168.98 Y177.359 E14.41854
G1 X169.151 Y177.394 E14.42435
G1 X169.325 Y177.46 E14.43055
G1 X169.326 Y185.763 E14.70713
G1 X169.149 Y185.828 E14.71341
G1 X168.98 Y185.864 E14.71917
G1 X168.726 Y185.877 E14.72764
G1 X121.81 Y185.877 E16.29043
G1 X121.648 Y185.867 E16.29583
G1 X121.471 Y185.829 E16.30186
G1 X121.295 Y185.765 E16.3081
G1 X121.294 Y177.46 E16.58474
G1 X121.467 Y177.395 E16.5909
G1 X121.637 Y177.36 E16.59668
G1 X121.894 Y177.347 E16.60525
G1 X140.56 Y177.347 E17.22703
G0 F2625 X140.56 Y177.097
G0 X141.16 Y177.097
G0 X141.55 Y178.337
;TYPE:SKIN
G1 F900 X141.55 Y173.337 E17.39358
G1 X149.07 Y173.337 E17.64407
G1 X149.07 Y178.337 E17.81062
G1 X168.335 Y178.341 E18.45235
G1 X168.336 Y184.887 E18.6704
G1 X122.285 Y184.885 E20.20437
G1 X122.284 Y178.337 E20.42249
G1 X141.55 Y178.337 E21.06425
G0 F2625 X123.14 Y184.658
G1 F900 X122.509 Y184.027 E21.09397
G0 F2625 X122.509 Y183.32
G1 F900 X123.847 Y184.658 E21.157
G0 F2625 X124.554 Y184.658
G1 F900 X122.509 Y182.613 E21.25334
G0 F2625 X122.509 Y181.906
G1 F900 X125.261 Y184.658 E21.38298
G0 F2625 X125.968 Y184.658
G1 F900 X122.509 Y181.198 E21.54595
G0 F2625 X122.509 Y180.491
G1 F900 X126.676 Y184.658 E21.74225
G0 F2625 X127.383 Y184.658
G1 F900 X122.509 Y179.784 E21.97185
G0 F2625 X122.509 Y179.077
G1 F900 X128.09 Y184.658 E22.23476
G0 F2625 X128.797 Y184.658
G1 F900 X122.699 Y178.561 E22.522
G0 F2625 X123.407 Y178.561
G1 F900 X129.504 Y184.658 E22.80922
G0 F2625 X130.211 Y184.658
G1 F900 X124.114 Y178.561 E23.09644
G0 F2625 X124.821 Y178.561
G1 F900 X130.918 Y184.658 E23.38365
G0 F2625 X131.625 Y184.658
G1 F900 X125.528 Y178.561 E23.67087
G0 F2625 X126.235 Y178.561
G1 F900 X132.332 Y184.658 E23.95809
G0 F2625 X133.04 Y184.658
G1 F900 X126.942 Y178.561 E24.24533
G0 F2625 X127.649 Y178.561
G1 F900 X133.747 Y184.658 E24.53257
G0 F2625 X134.454 Y184.659
G1 F900 X128.356 Y178.561 E24.81983
G0 F2625 X129.063 Y178.561
G1 F900 X135.162 Y184.659 E25.10712
G0 F2625 X135.869 Y184.659
G1 F900 X129.771 Y178.561 E25.39439
G0 F2625 X130.478 Y178.561
G1 F900 X136.576 Y184.659 E25.68165
G0 F2625 X137.283 Y184.659
G1 F900 X131.185 Y178.561 E25.96891
G0 F2625 X131.892 Y178.561
G1 F900 X137.99 Y184.659 E26.25618
G0 F2625 X138.697 Y184.659
G1 F900 X132.599 Y178.561 E26.54344
G0 F2625 X133.306 Y178.561
G1 F900 X139.404 Y184.659 E26.83071
G0 F2625 X140.111 Y184.659
G1 F900 X134.013 Y178.561 E27.11797
G0 F2625 X134.72 Y178.561
G1 F900 X140.818 Y184.659 E27.40524
G0 F2625 X141.526 Y184.659
G1 F900 X135.427 Y178.561 E27.69252
G0 F2625 X136.135 Y178.561
G1 F900 X142.233 Y184.659 E27.97979
G0 F2625 X142.94 Y184.659
G1 F900 X136.842 Y178.561 E28.26705
G0 F2625 X137.549 Y178.561
G1 F900 X143.647 Y184.659 E28.55432
G0 F2625 X144.354 Y184.659
G1 F900 X138.256 Y178.561 E28.84158
G0 F2625 X138.963 Y178.561
G1 F900 X145.061 Y184.659 E29.12885
G0 F2625 X145.769 Y184.66
G1 F900 X139.67 Y178.561 E29.41616
G0 F2625 X140.377 Y178.561
G1 F900 X146.476 Y184.66 E29.70347
G0 F2625 X147.183 Y184.66
G1 F900 X141.084 Y178.561 E29.99078
G0 F2625 X141.774 Y178.544
G1 F900 X147.89 Y184.66 E30.27889
G0 F2625 X148.597 Y184.66
G1 F900 X141.774 Y177.837 E30.60031
G0 F2625 X141.774 Y177.13
G1 F900 X149.304 Y184.66 E30.95503
G0 F2625 X150.011 Y184.66
G1 F900 X141.774 Y176.423 E31.34306
G0 F2625 X141.774 Y175.716
G1 F900 X150.719 Y184.66 E31.76442
G0 F2625 X151.426 Y184.66
G1 F900 X141.774 Y175.008 E32.21911
G0 F2625 X141.774 Y174.301
G1 F900 X152.133 Y184.66 E32.7071
G0 F2625 X152.84 Y184.66
G1 F900 X141.774 Y173.594 E33.22839
G0 F2625 X142.448 Y173.561
G1 F900 X153.547 Y184.66 E33.75124
G0 F2625 X154.254 Y184.66
G1 F900 X143.155 Y173.561 E34.2741
G0 F2625 X143.862 Y173.561
G1 F900 X148.845 Y178.543 E34.50881
G0 F2625 X148.863 Y178.562
G1 F900 X154.961 Y184.66 E34.79608
G0 F2625 X155.668 Y184.66
G1 F900 X149.57 Y178.562 E35.08334
G0 F2625 X150.277 Y178.562
G1 F900 X156.375 Y184.66 E35.3706
G0 F2625 X157.083 Y184.66
G1 F900 X150.984 Y178.562 E35.65789
G0 F2625 X151.692 Y178.562
G1 F900 X157.79 Y184.66 E35.94516
G0 F2625 X158.497 Y184.66
G1 F900 X152.399 Y178.562 E36.23242
G0 F2625 X153.107 Y178.562
G1 F900 X159.205 Y184.66 E36.51969
G0 F2625 X159.912 Y184.66
G1 F900 X153.814 Y178.562 E36.80695
G0 F2625 X154.521 Y178.562
G1 F900 X160.619 Y184.66 E37.09421
G0 F2625 X161.326 Y184.66
G1 F900 X155.228 Y178.562 E37.38148
G0 F2625 X155.935 Y178.562
G1 F900 X162.033 Y184.66 E37.66874
G0 F2625 X162.74 Y184.66
G1 F900 X156.643 Y178.563 E37.95596
G0 F2625 X157.35 Y178.563
G1 F900 X163.447 Y184.66 E38.24318
G0 F2625 X164.154 Y184.66
G1 F900 X158.057 Y178.563 E38.53039
G0 F2625 X158.764 Y178.563
G1 F900 X164.861 Y184.66 E38.81761
G0 F2625 X165.569 Y184.66
G1 F900 X159.471 Y178.563 E39.10485
G0 F2625 X160.178 Y178.563
G1 F900 X166.276 Y184.66 E39.39209
G0 F2625 X166.983 Y184.66
G1 F900 X160.886 Y178.564 E39.67929
G0 F2625 X161.593 Y178.564
G1 F900 X167.69 Y184.66 E39.96648
G0 F2625 X168.111 Y184.374
G1 F900 X162.3 Y178.564 E40.2402
G0 F2625 X163.007 Y178.564
G1 F900 X168.111 Y183.667 E40.48062
G0 F2625 X168.111 Y182.96
G1 F900 X163.715 Y178.564 E40.6877
G0 F2625 X164.422 Y178.564
G1 F900 X168.111 Y182.253 E40.86149
G0 F2625 X168.11 Y181.545
G1 F900 X165.129 Y178.564 E41.00191
G0 F2625 X165.837 Y178.564
G1 F900 X168.11 Y180.838 E41.10901
G0 F2625 X168.11 Y180.131
G1 F900 X166.544 Y178.564 E41.18281
G0 F2625 X167.251 Y178.564
G1 F900 X168.11 Y179.424 E41.2233
G0 F2625 X168.11 Y178.716
G1 F900 X167.958 Y178.564 E41.23046
G0 F2625 X148.845 Y177.836
G1 F900 X144.57 Y173.561 E41.43184
G0 F2625 X145.277 Y173.561
M104 S225
G1 F900 X148.845 Y177.129 E41.59993
G0 F2625 X148.845 Y176.422
G1 F900 X145.984 Y173.561 E41.7347
G0 F2625 X146.691 Y173.561
G1 F900 X148.845 Y175.715 E41.83617
G0 F2625 X148.845 Y175.008
G1 F900 X147.398 Y173.561 E41.90434
G0 F2625 X148.105 Y173.561
G1 F900 X148.845 Y174.301 E41.9392
G1 X148.933 Y174.389
;MESH:NONMESH
G0 F2625 X141.13 Y177.917
G0 X141.06 Y177.847
;TIME_ELAPSED:103.392117
;LAYER:1
M140 S60
M221 S100 T0
M106 S7.3
;MESH:
G0 F6562.5 X141.06 Y177.847 Z0.625
;TYPE:WALL-INNER
G1 F2250 X141.06 Y172.847 E42.01757
G1 X149.56 Y172.847 E42.15082
G1 X149.56 Y177.847 E42.22919
G1 X168.679 Y177.847 E42.52889
G1 X168.919 Y177.856 E42.53266
G1 X169.008 Y177.875 E42.53408
G1 X169.111 Y177.911 E42.53579
G1 X169.199 Y177.958 E42.53736
G1 X169.2 Y185.263 E42.65187
G1 X169.113 Y185.309 E42.65341
G1 X169.006 Y185.348 E42.6552
G1 X168.928 Y185.365 E42.65645
G1 X168.665 Y185.377 E42.66057
G1 X121.895 Y185.377 E43.39372
G1 X121.695 Y185.365 E43.39686
G1 X121.6 Y185.344 E43.39838
G1 X121.51 Y185.312 E43.39988
G1 X121.421 Y185.264 E43.40146
G1 X121.42 Y177.965 E43.51588
G1 X121.42 Y177.959 E43.51597
G1 X121.515 Y177.91 E43.51765
G1 X121.603 Y177.878 E43.51912
G1 X121.706 Y177.857 E43.52076
G1 X121.895 Y177.847 E43.52373
G1 X121.901 Y177.847 E43.52382
G1 X141.06 Y177.847 E43.82415
G0 F6562.5 X140.56 Y177.347
;TYPE:WALL-OUTER
G1 F1800 X140.56 Y172.347 E43.90253
G1 X150.06 Y172.347 E44.05145
G1 X150.06 Y177.347 E44.12982
G1 X168.699 Y177.347 E44.422
G1 X168.978 Y177.358 E44.42637
G1 X169.143 Y177.393 E44.42902
G1 X169.312 Y177.452 E44.43182
G1 X169.465 Y177.533 E44.43454
G1 X169.615 Y177.642 E44.43744
G1 X169.699 Y177.725 E44.4393
G1 X169.7 Y185.497 E44.56113
G1 X169.623 Y185.574 E44.56283
G1 X169.473 Y185.685 E44.56576
G1 X169.317 Y185.767 E44.56852
G1 X169.153 Y185.827 E44.57126
G1 X168.994 Y185.862 E44.57381
G1 X168.666 Y185.877 E44.57896
G1 X121.883 Y185.877 E45.3123
G1 X121.626 Y185.862 E45.31634
G1 X121.463 Y185.826 E45.31895
G1 X121.302 Y185.768 E45.32164
G1 X121.145 Y185.684 E45.32443
G1 X121.002 Y185.58 E45.3272
G1 X120.921 Y185.498 E45.32901
G1 X120.92 Y177.727 E45.45082
G1 X121.004 Y177.643 E45.45268
G1 X121.147 Y177.538 E45.45546
G1 X121.309 Y177.453 E45.45833
G1 X121.473 Y177.394 E45.46106
G1 X121.638 Y177.36 E45.4637
G1 X121.888 Y177.347 E45.46763
G1 X140.56 Y177.347 E45.76032
G0 F6562.5 X140.56 Y177.097
G0 X141.16 Y177.097
G0 X141.55 Y178.337
;TYPE:SKIN
G1 F1800 X141.55 Y173.337 E45.8387
G1 X149.07 Y173.337 E45.95658
G1 X149.07 Y178.337 E46.03495
G1 X168.709 Y178.339 E46.3428
G1 X168.71 Y184.884 E46.4454
G1 X121.911 Y184.886 E47.179
G1 X121.91 Y178.338 E47.28164
G1 X141.55 Y178.337 E47.58951
G0 F6562.5 X122.135 Y179.091
G1 F1800 X122.666 Y178.561 E47.60127
G0 F6562.5 X123.373 Y178.561
G1 F1800 X122.135 Y179.798 E47.6287
G0 F6562.5 X122.135 Y180.505
G1 F1800 X124.08 Y178.561 E47.67181
G0 F6562.5 X124.787 Y178.561
G1 F1800 X122.135 Y181.213 E47.7306
G0 F6562.5 X122.136 Y181.919
G1 F1800 X125.494 Y178.561 E47.80504
G0 F6562.5 X126.201 Y178.561
G1 F1800 X122.136 Y182.626 E47.89515
G0 F6562.5 X122.136 Y183.333
G1 F1800 X126.908 Y178.561 E48.00094
G0 F6562.5 X127.615 Y178.561
G1 F1800 X122.136 Y184.04 E48.1224
G0 F6562.5 X122.224 Y184.66
G1 F1800 X128.322 Y178.561 E48.2576
G0 F6562.5 X129.03 Y178.561
G1 F1800 X122.931 Y184.66 E48.3928
G0 F6562.5 X123.638 Y184.66
G1 F1800 X129.737 Y178.561 E48.52801
G0 F6562.5 X130.444 Y178.561
G1 F1800 X124.345 Y184.66 E48.66321
G0 F6562.5 X125.052 Y184.66
G1 F1800 X131.151 Y178.561 E48.79842
G0 F6562.5 X131.858 Y178.561
G1 F1800 X125.759 Y184.66 E48.93362
G0 F6562.5 X126.466 Y184.66
G1 F1800 X132.565 Y178.561 E49.06883
G0 F6562.5 X133.272 Y178.561
G1 F1800 X127.173 Y184.66 E49.20403
G0 F6562.5 X127.88 Y184.66
G1 F1800 X133.979 Y178.561 E49.33924
G0 F6562.5 X134.686 Y178.561
