;Generated by Cura LulzBot Edition GCodeWriter Version: 3.6.37
;FLAVOR:Marlin
;TIME:2500
;Filament used: 0.604376m
;Layer height: 0.1
;Generated with Cura_SteamEngine 3.6.37-macos
M82 ;absolute extrusion mode
;This G-Code has been generated specifically for the LulzBot TAZ 6 with standard extruder
;
;The following lines can be uncommented for printer specific fine tuning
;More information can be found at https://marlinfw.org/meta/gcode/
;
;M92 E833                 ;Set Axis Steps-per-unit
;M301 P21.0 I1.78 D61.93  ;Set Hotend PID
;M906 E135                ;Digipot Motor Current ((750mA-750)/5+135) = 135
;M206 Y4                  ;Set Home Offsets (default:4)
;
M73 P0 ; clear GLCD progress bar
M75 ; start GLCD timer
G26 ; clear potential 'probe fail' condition
M107 ; disable fans
M420 S0 ; disable previous leveling matrix
G90 ; absolute positioning
M82 ; set extruder to absolute mode
G92 E0 ; set extruder position to 0
M140 S60.0 ; start bed heating up
M109 R160 ; soften filament before homing Z
G28 ; Home all axis
G1 E-15 F100 ; retract filament
M109 R160                  ; wait for extruder to reach wiping temp
;M206 X0 Y0 Z0              ; uncomment to adjust wipe position (+X ~ nozzle moves left)(+Y ~ nozzle moves forward)(+Z ~ nozzle moves down)
G12                         ; wiping sequence
M206 X0 Y4 Z0               ; reseting stock nozzle position ### CAUTION: changing this line can affect print quality ###
M109 R160 ; wait for extruder to reach probe temp
G1 X-10 Y293 F4000 ; move above first probe point
M204 S100 ; set probing acceleration
G29 ; start auto-leveling sequence
M420 S1 ; activate bed level matrix
M425 Z			     ; use measured Z backlash for compensation
M425 Z F0		     ; turn off measured Z backlash compensation. (if activated in the quality settings, this command will automatically be ignored)
M204 S500 ; restore standard acceleration
G1 X0 Y0 Z15 F5000 ; move up off last probe point
G4 S1 ; pause
M400 ; wait for moves to finish
M117 Heating... ; progress indicator message on LCD
M109 R230 ; wait for extruder to reach printing temp
M190 R60.0 ; wait for bed to reach printing temp
G1 Z2 E0 F75 ; prime tiny bit of filament into the nozzle
M117 TAZ 6 Printing... ; progress indicator message on LCD

M221 S100 T0
G92 E0
G1 F600 E-1
;LAYER_COUNT:88
;LAYER:0
M107
G0 F2625 X113.342 Y130.336 Z0.425
;TYPE:SKIRT
G1 F600 E0
G1 F900 X113.786 Y130.016 E0.01823
G1 X114.174 Y129.809 E0.03288
G1 X114.532 Y129.644 E0.04601
G1 X115.045 Y129.452 E0.06426
G1 X115.58 Y129.337 E0.08248
G1 X115.858 Y129.308 E0.09179
G1 X116.856 Y129.243 E0.12511
G1 X117.106 Y129.235 E0.13344
G1 X163.953 Y129.313 E1.69393
G1 X164.499 Y129.354 E1.71217
G1 X165.033 Y129.474 E1.7304
G1 X165.496 Y129.648 E1.74688
G1 X165.798 Y129.785 E1.75793
G1 X166.279 Y130.047 E1.77617
G1 X166.716 Y130.376 E1.79439
G1 X167.101 Y130.765 E1.81262
G1 X167.425 Y131.206 E1.83085
G1 X167.682 Y131.69 E1.8491
G1 X167.865 Y132.206 E1.86734
G1 X167.971 Y132.743 E1.88557
G1 X167.999 Y133.197 E1.90073
G1 X168.006 Y141.785 E2.1868
G1 X167.966 Y142.331 E2.20503
G1 X167.848 Y142.865 E2.22325
G1 X167.653 Y143.377 E2.2415
G1 X167.385 Y143.854 E2.25972
G1 X167.051 Y144.288 E2.27797
G1 X166.658 Y144.668 E2.29618
G1 X166.213 Y144.987 E2.31441
G1 X165.806 Y145.203 E2.32976
G1 X165.449 Y145.365 E2.34282
G1 X164.935 Y145.554 E2.36106
G1 X164.571 Y145.639 E2.37351
G1 X161.959 Y146.115 E2.46195
G1 X156.585 Y147.309 E2.64533
G1 X154.02 Y147.995 E2.73377
G1 X146.164 Y150.569 E3.00915
G1 X145.632 Y150.701 E3.02741
G1 X144.996 Y150.755 E3.04867
G1 X135.009 Y150.755 E3.38134
G1 X134.463 Y150.715 E3.39957
G1 X133.756 Y150.539 E3.42384
G1 X130.699 Y149.455 E3.53189
G1 X125.454 Y147.85 E3.7146
G1 X120.145 Y146.549 E3.89667
G1 X117.487 Y146.015 E3.98698
G1 X115.376 Y145.626 E4.05848
G1 X114.847 Y145.488 E4.07669
G1 X114.52 Y145.359 E4.0884
G1 X114.217 Y145.223 E4.09947
G1 X113.736 Y144.963 E4.11768
G1 X113.297 Y144.636 E4.13591
G1 X112.911 Y144.248 E4.15415
G1 X112.585 Y143.808 E4.17239
G1 X112.327 Y143.326 E4.1906
G1 X112.141 Y142.811 E4.20884
G1 X112.033 Y142.274 E4.22708
G1 X112.003 Y141.806 E4.2427
G1 X111.994 Y133.219 E4.52874
G1 X112.033 Y132.673 E4.54697
G1 X112.152 Y132.139 E4.5652
G1 X112.347 Y131.627 E4.58345
G1 X112.614 Y131.15 E4.60166
G1 X112.948 Y130.716 E4.6199
G1 X113.342 Y130.336 E4.63813
G0 F2625 X113.829 Y130.589
G1 F900 X114.384 Y130.263 E4.65957
G1 X114.742 Y130.098 E4.6727
G1 X115.22 Y129.922 E4.68967
G1 X115.891 Y129.807 E4.71235
G1 X116.889 Y129.742 E4.74566
G1 X117.105 Y129.735 E4.75286
G1 X163.952 Y129.813 E6.31335
G1 X164.46 Y129.854 E6.33033
G1 X164.956 Y129.973 E6.34732
G1 X165.29 Y130.103 E6.35926
G1 X165.592 Y130.24 E6.37031
G1 X166.038 Y130.487 E6.38729
G1 X166.44 Y130.799 E6.40424
G1 X166.788 Y131.171 E6.42121
G1 X167.074 Y131.593 E6.43819
G1 X167.29 Y132.054 E6.45515
G1 X167.432 Y132.544 E6.47214
G1 X167.499 Y133.197 E6.49401
G1 X167.506 Y141.785 E6.78008
G1 X167.466 Y142.293 E6.79705
G1 X167.348 Y142.789 E6.81403
G1 X167.154 Y143.26 E6.831
G1 X166.888 Y143.695 E6.84799
G1 X166.558 Y144.083 E6.86495
G1 X166.171 Y144.414 E6.88192
G1 X165.599 Y144.748 E6.90398
G1 X165.242 Y144.91 E6.91704
G1 X164.763 Y145.083 E6.934
G1 X164.481 Y145.147 E6.94364
G1 X161.863 Y145.624 E7.03228
G1 X156.469 Y146.823 E7.21634
G1 X153.861 Y147.52 E7.30626
G1 X146.008 Y150.093 E7.58153
G1 X145.513 Y150.214 E7.5985
G1 X144.996 Y150.255 E7.61578
G1 X135.009 Y150.255 E7.94845
G1 X134.501 Y150.215 E7.96542
G1 X133.923 Y150.068 E7.98529
G1 X130.854 Y148.98 E8.09375
G1 X125.593 Y147.37 E8.27702
G1 X120.241 Y146.059 E8.46057
G1 X117.563 Y145.52 E8.55156
G1 X115.467 Y145.134 E8.62256
G1 X114.975 Y145.003 E8.63952
G1 X114.725 Y144.903 E8.64849
G1 X114.422 Y144.767 E8.65955
G1 X113.975 Y144.523 E8.67651
G1 X113.572 Y144.211 E8.69349
G1 X113.222 Y143.841 E8.71046
G1 X112.934 Y143.42 E8.72745
G1 X112.716 Y142.96 E8.7444
G1 X112.573 Y142.471 E8.76137
G1 X112.503 Y141.805 E8.78368
G1 X112.494 Y133.218 E9.06972
G1 X112.533 Y132.71 E9.08669
G1 X112.652 Y132.215 E9.10365
G1 X112.846 Y131.744 E9.12061
G1 X113.112 Y131.309 E9.1376
G1 X113.442 Y130.921 E9.15457
G1 X113.829 Y130.589 E9.17155
G1 F600 E8.17155
;MESH:
G0 F2625 X116.212 Y132.338
G0 X116.589 Y133.754
G0 X144.18 Y141.195
G0 X144.25 Y141.265
;TYPE:WALL-INNER
G1 F600 E9.17155
G1 F900 X144.25 Y146.265 E9.3381
G1 X135.75 Y146.265 E9.62124
G1 X135.75 Y141.265 E9.78779
G1 X116.485 Y141.261 E10.42952
G1 X116.484 Y133.937 E10.67348
G1 X116.484 Y133.74 E10.68004
G1 X116.589 Y133.735 E10.68355
G1 X116.786 Y133.735 E10.69011
G1 X163.515 Y133.737 E12.24667
G1 X163.516 Y141.063 E12.4907
G1 X163.516 Y141.26 E12.49726
G1 X163.411 Y141.265 E12.50076
G1 X163.214 Y141.265 E12.50732
G1 X144.25 Y141.265 E13.13902
G0 F2625 X144.75 Y141.765
;TYPE:WALL-OUTER
G1 F900 X144.75 Y146.765 E13.30557
G1 X135.25 Y146.765 E13.62202
G1 X135.25 Y141.765 E13.78857
G1 X116.554 Y141.765 E14.41134
G1 X116.33 Y141.753 E14.41882
G1 X116.159 Y141.718 E14.42463
G1 X115.985 Y141.652 E14.43083
G1 X115.984 Y133.349 E14.70741
G1 X116.158 Y133.283 E14.7136
G1 X116.328 Y133.248 E14.71939
G1 X116.584 Y133.235 E14.72792
G1 X163.5 Y133.235 E16.29071
G1 X163.664 Y133.246 E16.29619
G1 X163.842 Y133.282 E16.30224
G1 X164.015 Y133.347 E16.30839
G1 X164.016 Y141.652 E16.58504
G1 X163.843 Y141.717 E16.59119
G1 X163.673 Y141.752 E16.59697
G1 X163.416 Y141.765 E16.60555
G1 X144.75 Y141.765 E17.22732
G0 F2625 X144.75 Y142.015
G0 X144.15 Y142.015
G0 X143.76 Y140.775
;TYPE:SKIN
G1 F900 X143.76 Y145.775 E17.39387
G1 X136.24 Y145.775 E17.64436
G1 X136.24 Y140.775 E17.81091
G1 X116.975 Y140.771 E18.45264
G1 X116.974 Y134.225 E18.67069
G1 X163.025 Y134.227 E20.20466
G1 X163.026 Y140.775 E20.42278
G1 X143.76 Y140.775 E21.06454
G0 F2625 X162.8 Y135.222
G1 F900 X162.028 Y134.451 E21.10088
G0 F2625 X161.321 Y134.451
G1 F900 X162.8 Y135.929 E21.17053
G0 F2625 X162.8 Y136.637
G1 F900 X160.614 Y134.451 E21.27351
G0 F2625 X159.907 Y134.451
G1 F900 X162.8 Y137.344 E21.40979
G0 F2625 X162.8 Y138.051
G1 F900 X159.2 Y134.451 E21.57938
G0 F2625 X158.493 Y134.451
G1 F900 X162.8 Y138.758 E21.78227
G0 F2625 X162.8 Y139.465
G1 F900 X157.785 Y134.451 E22.0185
G0 F2625 X157.078 Y134.451
G1 F900 X162.8 Y140.172 E22.28803
G0 F2625 X162.47 Y140.55
G1 F900 X156.371 Y134.451 E22.57534
G0 F2625 X155.664 Y134.451
G1 F900 X161.763 Y140.55 E22.86265
G0 F2625 X161.056 Y140.55
G1 F900 X154.957 Y134.451 E23.14996
G0 F2625 X154.25 Y134.451
G1 F900 X160.349 Y140.55 E23.43727
G0 F2625 X159.642 Y140.55
G1 F900 X153.543 Y134.451 E23.72458
G0 F2625 X152.836 Y134.451
G1 F900 X158.934 Y140.55 E24.01187
G0 F2625 X158.227 Y140.55
G1 F900 X152.129 Y134.451 E24.29916
G0 F2625 X151.421 Y134.451
G1 F900 X157.52 Y140.55 E24.58647
G0 F2625 X156.813 Y140.55
G1 F900 X150.714 Y134.451 E24.87378
G0 F2625 X150.007 Y134.451
G1 F900 X156.106 Y140.55 E25.16109
G0 F2625 X155.399 Y140.55
G1 F900 X149.3 Y134.451 E25.4484
G0 F2625 X148.593 Y134.451
G1 F900 X154.692 Y140.55 E25.73572
G0 F2625 X153.985 Y140.55
G1 F900 X147.886 Y134.451 E26.02303
G0 F2625 X147.178 Y134.45
G1 F900 X153.278 Y140.55 E26.31039
G0 F2625 X152.571 Y140.55
G1 F900 X146.471 Y134.45 E26.59774
G0 F2625 X145.764 Y134.45
G1 F900 X151.863 Y140.55 E26.88508
G0 F2625 X151.156 Y140.55
G1 F900 X145.057 Y134.45 E27.17241
G0 F2625 X144.35 Y134.45
G1 F900 X150.449 Y140.55 E27.45975
G0 F2625 X149.742 Y140.55
G1 F900 X143.643 Y134.45 E27.74708
G0 F2625 X142.935 Y134.45
G1 F900 X149.035 Y140.55 E28.03444
G0 F2625 X148.328 Y140.55
G1 F900 X142.228 Y134.45 E28.3218
G0 F2625 X141.521 Y134.45
G1 F900 X147.621 Y140.55 E28.60916
G0 F2625 X146.914 Y140.55
G1 F900 X140.814 Y134.45 E28.89652
G0 F2625 X140.107 Y134.45
G1 F900 X146.207 Y140.55 E29.18388
G0 F2625 X145.499 Y140.55
G1 F900 X139.4 Y134.45 E29.47121
G0 F2625 X138.693 Y134.45
G1 F900 X144.792 Y140.55 E29.75855
G0 F2625 X144.085 Y140.55
G1 F900 X137.986 Y134.45 E30.04588
G0 F2625 X137.279 Y134.45
G1 F900 X143.534 Y140.706 E30.34057
G0 F2625 X143.534 Y141.413
G1 F900 X136.572 Y134.45 E30.66856
G0 F2625 X135.864 Y134.45
G1 F900 X143.534 Y142.12 E31.02987
G0 F2625 X143.534 Y142.827
G1 F900 X135.157 Y134.45 E31.4245
G0 F2625 X134.45 Y134.45
G1 F900 X143.534 Y143.534 E31.85243
G0 F2625 X143.534 Y144.242
G1 F900 X133.743 Y134.45 E32.31368
G0 F2625 X133.036 Y134.45
G1 F900 X143.534 Y144.949 E32.80825
G0 F2625 X143.427 Y145.548
G1 F900 X132.328 Y134.449 E33.3311
G0 F2625 X131.621 Y134.449
G1 F900 X142.72 Y145.548 E33.85395
G0 F2625 X142.013 Y145.548
G1 F900 X130.914 Y134.449 E34.3768
G0 F2625 X130.207 Y134.449
G1 F900 X136.306 Y140.548 E34.66411
G0 F2625 X136.464 Y140.707
G1 F900 X141.306 Y145.548 E34.89219
G0 F2625 X140.598 Y145.548
G1 F900 X136.464 Y141.414 E35.08693
G0 F2625 X136.464 Y142.121
G1 F900 X139.891 Y145.548 E35.24837
G0 F2625 X139.184 Y145.548
G1 F900 X136.464 Y142.828 E35.3765
G0 F2625 X136.464 Y143.535
G1 F900 X138.477 Y145.548 E35.47133
G0 F2625 X137.77 Y145.548
G1 F900 X136.464 Y144.242 E35.53285
G0 F2625 X136.464 Y144.949
G1 F900 X137.063 Y145.548 E35.56107
G0 F2625 X135.599 Y140.548
G1 F900 X129.5 Y134.449 E35.84838
G0 F2625 X128.793 Y134.449
G1 F900 X134.891 Y140.548 E36.13567
G0 F2625 X134.184 Y140.548
G1 F900 X128.086 Y134.449 E36.42296
G0 F2625 X127.378 Y134.449
G1 F900 X133.477 Y140.548 E36.71027
G0 F2625 X132.769 Y140.548
G1 F900 X126.671 Y134.449 E36.99756
G0 F2625 X125.964 Y134.449
G1 F900 X132.062 Y140.548 E37.28485
G0 F2625 X131.355 Y140.548
G1 F900 X125.257 Y134.449 E37.57213
G0 F2625 X124.55 Y134.449
G1 F900 X130.648 Y140.548 E37.85942
G0 F2625 X129.94 Y140.547
G1 F900 X123.843 Y134.449 E38.14666
G0 F2625 X123.136 Y134.449
G1 F900 X129.233 Y140.547 E38.4339
G0 F2625 X128.526 Y140.547
G1 F900 X122.429 Y134.449 E38.72114
G0 F2625 X121.722 Y134.449
G1 F900 X127.819 Y140.547 E39.00838
G0 F2625 X127.112 Y140.547
G1 F900 X121.014 Y134.449 E39.29565
G0 F2625 X120.307 Y134.449
G1 F900 X126.404 Y140.546 E39.58287
G0 F2625 X125.697 Y140.546
G1 F900 X119.6 Y134.449 E39.87008
G0 F2625 X118.893 Y134.449
G1 F900 X124.99 Y140.546 E40.1573
G0 F2625 X124.283 Y140.546
G1 F900 X118.186 Y134.449 E40.44452
G0 F2625 X117.479 Y134.449
G1 F900 X123.575 Y140.545 E40.73169
G0 F2625 X122.868 Y140.545
G1 F900 X117.198 Y134.876 E40.99877
G0 F2625 X117.198 Y135.583
G1 F900 X122.161 Y140.545 E41.23254
G0 F2625 X121.454 Y140.545
G1 F900 X117.198 Y136.29 E41.43301
G0 F2625 X117.198 Y136.997
M104 S225
G1 F900 X120.746 Y140.545 E41.60015
G0 F2625 X120.039 Y140.545
G1 F900 X117.198 Y137.704 E41.73398
G0 F2625 X117.198 Y138.411
G1 F900 X119.332 Y140.545 E41.83451
G0 F2625 X118.624 Y140.545
G1 F900 X117.198 Y139.119 E41.90169
G0 F2625 X117.198 Y139.826
G1 F900 X117.917 Y140.545 E41.93556
G1 X118.005 Y140.633
;MESH:NONMESH
G0 F2625 X144.18 Y141.195
G0 X144.25 Y141.265
;TIME_ELAPSED:103.641260
;LAYER:1
M140 S60
M221 S100 T0
M106 S3.6
;MESH:
G0 F6562.5 X144.25 Y141.265 Z0.525
;TYPE:WALL-INNER
G1 F2250 X144.25 Y146.265 E41.97474
G1 X135.75 Y146.265 E42.04137
G1 X135.75 Y141.265 E42.08055
G1 X116.624 Y141.265 E42.23046
G1 X116.387 Y141.255 E42.23232
G1 X116.3 Y141.237 E42.23301
G1 X116.159 Y141.179 E42.23421
G1 X116.158 Y133.822 E42.29187
G1 X116.201 Y133.799 E42.29225
G1 X116.298 Y133.765 E42.29306
G1 X116.386 Y133.747 E42.29376
G1 X116.688 Y133.735 E42.29613
G1 X163.481 Y133.735 E42.66288
G1 X163.603 Y133.743 E42.66384
G1 X163.701 Y133.763 E42.66463
G1 X163.794 Y133.796 E42.6654
G1 X163.841 Y133.821 E42.66582
G1 X163.842 Y141.178 E42.72348
G1 X163.7 Y141.237 E42.72468
G1 X163.617 Y141.253 E42.72535
G1 X163.312 Y141.265 E42.72774
G1 X144.25 Y141.265 E42.87714
G0 F6562.5 X144.75 Y141.765
;TYPE:WALL-OUTER
G1 F1800 X144.75 Y146.765 E42.91633
G1 X135.25 Y146.765 E42.99079
G1 X135.25 Y141.765 E43.02998
G1 X116.602 Y141.765 E43.17613
G1 X116.33 Y141.753 E43.17827
G1 X116.167 Y141.72 E43.17957
G1 X115.998 Y141.66 E43.18098
G1 X115.845 Y141.579 E43.18233
G1 X115.693 Y141.469 E43.18381
G1 X115.659 Y141.436 E43.18418
G1 X115.658 Y133.565 E43.24587
G1 X115.692 Y133.532 E43.24624
G1 X115.844 Y133.422 E43.24771
G1 X115.997 Y133.341 E43.24907
G1 X116.166 Y133.281 E43.25047
G1 X116.328 Y133.248 E43.25177
G1 X116.669 Y133.235 E43.25444
G1 X163.499 Y133.235 E43.62148
G1 X163.666 Y133.246 E43.62279
G1 X163.836 Y133.28 E43.62415
G1 X163.999 Y133.339 E43.62551
G1 X164.163 Y133.426 E43.62697
G1 X164.309 Y133.533 E43.62839
G1 X164.341 Y133.564 E43.62874
G1 X164.342 Y141.433 E43.69041
G1 X164.303 Y141.472 E43.69084
G1 X164.163 Y141.574 E43.6922
G1 X164 Y141.659 E43.69364
G1 X163.837 Y141.719 E43.695
G1 X163.674 Y141.752 E43.69631
G1 X163.331 Y141.765 E43.699
G1 X144.75 Y141.765 E43.84463
G0 F6562.5 X144.75 Y142.015
G0 X144.15 Y142.015
G0 X143.76 Y140.775
;TYPE:SKIN
G1 F1800 X143.76 Y145.775 E43.88382
G1 X136.24 Y145.775 E43.94276
G1 X136.24 Y140.775 E43.98195
G1 X116.649 Y140.775 E44.1355
G1 X116.648 Y134.227 E44.18682
G1 X163.351 Y134.225 E44.55286
G1 X163.352 Y140.773 E44.60418
G1 X143.76 Y140.775 E44.75774
G0 F6562.5 X163.125 Y140.223
G1 F1800 X162.8 Y140.548 E44.76134
G0 F6562.5 X162.092 Y140.548
G1 F1800 X163.125 Y139.516 E44.77279
G0 F6562.5 X163.125 Y138.809
G1 F1800 X161.385 Y140.548 E44.79207
G0 F6562.5 X160.678 Y140.548
G1 F1800 X163.125 Y138.102 E44.81919
G0 F6562.5 X163.125 Y137.395
G1 F1800 X159.971 Y140.548 E44.85414
G0 F6562.5 X159.264 Y140.548
G1 F1800 X163.125 Y136.687 E44.89694
G0 F6562.5 X163.125 Y135.98
G1 F1800 X158.557 Y140.548 E44.94757
G0 F6562.5 X157.85 Y140.548
G1 F1800 X163.125 Y135.273 E45.00604
G0 F6562.5 X163.125 Y134.566
G1 F1800 X157.143 Y140.548 E45.07234
G0 F6562.5 X156.435 Y140.549
G1 F1800 X162.534 Y134.45 E45.13995
G0 F6562.5 X161.827 Y134.45
G1 F1800 X155.728 Y140.549 E45.20755
G0 F6562.5 X155.021 Y140.549
G1 F1800 X161.119 Y134.45 E45.27515
G0 F6562.5 X160.412 Y134.45
G1 F1800 X154.314 Y140.549 E45.34274
G0 F6562.5 X153.606 Y140.549
G1 F1800 X159.705 Y134.45 E45.41035
G0 F6562.5 X158.998 Y134.45
G1 F1800 X152.899 Y140.549 E45.47795
G0 F6562.5 X152.192 Y140.549
G1 F1800 X158.291 Y134.45 E45.54555
G0 F6562.5 X157.584 Y134.45
G1 F1800 X151.485 Y140.549 E45.61315
G0 F6562.5 X150.778 Y140.549
G1 F1800 X156.877 Y134.45 E45.68076
